assets/awsdatazonebusinessdatacatalog/original.svg

<svg height="48" viewBox="0 0 48 48" width="48" xmlns="http://www.w3.org/2000/svg"><path d="m36 30a1.001 1.001 0 0 1 0-2 1.001 1.001 0 0 1 0 2m-8 0a1.001 1.001 0 0 1 0-2 1.001 1.001 0 0 1 0 2m-8 0a1.001 1.001 0 0 1 0-2 1.001 1.001 0 0 1 0 2m8-13a1.001 1.001 0 0 1 0 2 1.001 1.001 0 0 1 0-2m5 12c0 1.654 1.346 3 3 3s3-1.346 3-3a3 3 0 0 0 -2-2.816v-3.184a1 1 0 0 0 -1-1h-7v-1.184a3 3 0 0 0 2-2.816c0-1.654-1.346-3-3-3s-3 1.346-3 3c0 1.302.839 2.402 2 2.816v1.184h-7a1 1 0 0 0 -1 1v3.184a3 3 0 0 0 -2 2.816c0 1.654 1.346 3 3 3s3-1.346 3-3a3 3 0 0 0 -2-2.816v-2.184h6v2.184a3 3 0 0 0 -2 2.816c0 1.654 1.346 3 3 3s3-1.346 3-3a3 3 0 0 0 -2-2.816v-2.184h6v2.184a3 3 0 0 0 -2 2.816m-28-27h4v2h-3v40h3v2h-4a1 1 0 0 1 -1-1v-42a1 1 0 0 1 1-1m11 40h24v-2h-24zm0-4h24v-2h-24zm0-26h24v-2h-24zm0-4h24v-2h-24zm-3 36h29v-40h-29zm30-42h-31a1 1 0 0 0 -1 1v42a1 1 0 0 0 1 1h31a1 1 0 0 0 1-1v-42a1 1 0 0 0 -1-1" fill="#8c4fff" fill-rule="evenodd"/></svg>

<svg xmlns="http://www.w3.org/2000/svg" width="48" height="48" viewBox="0 0 48 48"><title>Icon-Resource/Analytics/Res_Amazon-DataZone_Business-Data-Catalog_48</title><g id="Icon-Resource/Analytics/Res_Amazon-DataZone_Business-Data-Catalog_48" fill="none" fill-rule="evenodd" stroke="none" stroke-width="1"><path id="Fill-1" fill="#8c4fff" d="M36 30a1.001 1.001 0 0 1 0-2 1.001 1.001 0 0 1 0 2m-8 0a1.001 1.001 0 0 1 0-2 1.001 1.001 0 0 1 0 2m-8 0a1.001 1.001 0 0 1 0-2 1.001 1.001 0 0 1 0 2m8-13a1.001 1.001 0 0 1 0 2 1.001 1.001 0 0 1 0-2m5 12c0 1.654 1.346 3 3 3s3-1.346 3-3a3 3 0 0 0-2-2.816V23a1 1 0 0 0-1-1h-7v-1.184A3 3 0 0 0 31 18c0-1.654-1.346-3-3-3s-3 1.346-3 3c0 1.302.839 2.402 2 2.816V22h-7a1 1 0 0 0-1 1v3.184A3 3 0 0 0 17 29c0 1.654 1.346 3 3 3s3-1.346 3-3a3 3 0 0 0-2-2.816V24h6v2.184A3 3 0 0 0 25 29c0 1.654 1.346 3 3 3s3-1.346 3-3a3 3 0 0 0-2-2.816V24h6v2.184A3 3 0 0 0 33 29M5 2h4v2H6v40h3v2H5a1 1 0 0 1-1-1V3a1 1 0 0 1 1-1m11 40h24v-2H16zm0-4h24v-2H16zm0-26h24v-2H16zm0-4h24V6H16zm-3 36h29V4H13zM43 2H12a1 1 0 0 0-1 1v42a1 1 0 0 0 1 1h31a1 1 0 0 0 1-1V3a1 1 0 0 0-1-1"/></g></svg>
